X:191
T:Jubilee Jig
T:8 x 32J 3C
%
P:Miss Gordon of Liverpool
O:RSCDS Leaflet 19
B:RSCDS Leaflet 19
C:William Marshall (orig. 9/8)
C:Arr. T. Traub 8-29-03, from B. McOwen
R:Jig
M:6/8
L:1/8
K:F
|: C |\
"F"F3 F2 A | "F"cAF F3 | "C"EFG "G7"GAF | "C"EDE CDE |\
"F"F3 "Dm"F2 d | "C"cde "F"f2 c | "Bb"d/e/fd "C"e/f/ge | "F"f3 F2 :| 
g |\
"F"afc "C"bge | "F"a2 f c2 c | "Bb"def "G7"gaf | "C"e3 c3 |\
"F"afc "C"bge | "F"afc "Dm"AFC | "Bb"D2 F "C"E/F/GE | "F"F3 F2 |]
f |\
"F"afc "C"bge | "F"a2 f c2 c | "Bb"def "G7"gaf | "C"e3 c3 |\
"Bb"dBf "F"cAf | "F"cAF C2 C | "Bb"D2 F "C"E/F/GE | "F"F3 F2 |] 
